www/assets/icons/local_bar.svg

<svg xmlns="http://www.w3.org/2000/svg" width="24" height="24" viewBox="0 0 24 24" fill='currentColor'><path d="M21 5V3H3v2l8 9v5H6v2h12v-2h-5v-5zM7.43 7 5.66 5h12.69l-1.78 2z"/></svg>

<svg width="24" height="24" viewBox="0 0 24 24" xmlns="http://www.w3.org/2000/svg" fill='currentColor'><path d="M21 5V3H3V5L11 14V19H6V21H18V19H13V14L21 5ZM7.43 7L5.66 5H18.35L16.57 7H7.43Z"/></svg>
